icons/1_Primary/Bitwage.svg

<svg width="1024" height="1024" viewBox="0 0 1024 1024" fill="none" xmlns="http://www.w3.org/2000/svg">
<g clip-path="url(#clip0_2_1674)">
<path d="M512 1024C794.77 1024 1024 794.77 1024 512C1024 229.23 794.77 0 512 0C229.23 0 0 229.23 0 512C0 794.77 229.23 1024 512 1024Z" fill="#9ABEFF"/>
<path d="M287.011 256C336.271 256.02 385.531 256 434.801 256C434.801 263.07 434.441 270.37 437.021 277.11C442.001 291.51 456.311 302.1 471.581 302.36C484.201 302.45 496.821 302.36 509.441 302.4C521.661 302.45 533.901 302.13 546.091 303.17C765.321 322.59 846.491 598.71 672.071 733.34C570.611 812.55 417.351 792.92 338.771 691.08C305.771 649.66 287.201 597.03 287.021 544.06C286.961 448.04 286.991 352.02 287.001 256M303.981 272.7C306.241 329.44 339.181 383.59 388.761 411.37C434.811 438.45 477.721 433.16 528.371 433.55C580.971 433.3 628.821 475.92 634.831 528.15C643.231 583.59 602.501 639.87 547.221 649.28C487.711 661.78 426.021 617.2 419.051 556.82C417.791 547.88 418.151 538.83 418.101 529.84V441.94C400.821 436.67 384.391 428.71 369.391 418.66C369.371 461.5 369.351 504.34 369.411 547.19C369.291 600.22 398.311 651.78 443.331 679.67C525.151 732.17 638.071 694.93 673.281 604.47C697.131 546.6 681.891 475.87 636.361 432.92C611.471 408.73 578.391 393.12 543.851 389.53C533.731 388.35 523.541 388.65 513.381 388.61C500.781 388.61 488.161 388.63 475.551 388.61C412.441 389.27 355.871 335.76 352.921 272.73C336.611 272.71 320.281 272.75 303.971 272.71M369.751 272.71C372.851 326.7 421.461 372.24 475.521 371.83C492.881 371.88 510.251 371.83 527.611 371.86C579.751 371.71 630.971 396.73 663.211 437.65C723.611 511.59 709.881 625.77 633.981 683.57C559.901 742.85 446.661 728.55 389.361 653.02C362.711 619.48 350.651 576.29 352.641 533.78V406.01C331.891 388.31 314.991 366.09 303.671 341.26C303.731 405.96 303.671 470.67 303.691 535.37C303.561 547.19 303.961 559.02 305.491 570.75C308.431 593.68 314.921 616.16 324.791 637.06C378.881 754.99 528.891 801.89 640.141 734.71C750.041 671.18 784.131 521.96 711.761 417.42C672.411 358.6 604.001 320.65 533.161 319.24C512.621 319 492.081 319.24 471.541 319.11C445.651 319 422.221 298.3 418.661 272.7H369.731M434.791 446.28C434.751 477.02 434.791 507.76 434.771 538.5C434.621 547.83 435.441 557.22 437.941 566.24C466.141 663.04 602.921 654.06 618.221 554.42C625.891 500.38 582.191 450.1 527.601 450.23C496.671 449.51 465.291 452.66 434.781 446.29L434.791 446.28Z" fill="white"/>
</g>
<defs>
<clipPath id="clip0_2_1674">
<rect width="1024" height="1024" fill="white"/>
</clipPath>
</defs>
</svg>

<svg xmlns="http://www.w3.org/2000/svg" width="1024" height="1024" fill="none">
   <g clip-path="url(#a)">
      <path fill="#9ABEFF" d="M512 1024c282.77 0 512-229.23 512-512S794.77 0 512 0 0 229.23 0 512s229.23 512 512 512Z"/>
      <path fill="#fff" d="M287.011 256c49.26.02 98.52 0 147.79 0 0 7.07-.36 14.37 2.22 21.11 4.98 14.4 19.29 24.99 34.56 25.25 12.62.09 25.24 0 37.86.04 12.22.05 24.46-.27 36.65.77 219.23 19.42 300.4 295.54 125.98 430.17-101.46 79.21-254.72 59.58-333.3-42.26-33-41.42-51.57-94.05-51.75-147.02-.06-96.02-.03-192.04-.02-288.06m16.98 16.7c2.26 56.74 35.2 110.89 84.78 138.67 46.05 27.08 88.96 21.79 139.61 22.18 52.6-.25 100.45 42.37 106.46 94.6 8.4 55.44-32.33 111.72-87.61 121.13-59.51 12.5-121.2-32.08-128.17-92.46-1.26-8.94-.9-17.99-.95-26.98v-87.9c-17.28-5.27-33.71-13.23-48.71-23.28-.02 42.84-.04 85.68.02 128.53-.12 53.03 28.9 104.59 73.92 132.48 81.82 52.5 194.74 15.26 229.95-75.2 23.85-57.87 8.61-128.6-36.92-171.55-24.89-24.19-57.97-39.8-92.51-43.39-10.12-1.18-20.31-.88-30.47-.92-12.6 0-25.22.02-37.83 0-63.11.66-119.68-52.85-122.63-115.88-16.31-.02-32.64.02-48.95-.02m65.78 0c3.1 53.99 51.71 99.53 105.77 99.12 17.36.05 34.73 0 52.09.03 52.14-.15 103.36 24.87 135.6 65.79 60.4 73.94 46.67 188.12-29.23 245.92-74.08 59.28-187.32 44.98-244.62-30.55-26.65-33.54-38.71-76.73-36.72-119.24V406.01c-20.75-17.7-37.65-39.92-48.97-64.75.06 64.7 0 129.41.02 194.11-.13 11.82.27 23.65 1.8 35.38 2.94 22.93 9.43 45.41 19.3 66.31 54.09 117.93 204.1 164.83 315.35 97.65 109.9-63.53 143.99-212.75 71.62-317.29-39.35-58.82-107.76-96.77-178.6-98.18-20.54-.24-41.08 0-61.62-.13-25.89-.11-49.32-20.81-52.88-46.41h-48.93m65.06 173.58c-.04 30.74 0 61.48-.02 92.22-.15 9.33.67 18.72 3.17 27.74 28.2 96.8 164.98 87.82 180.28-11.82 7.67-54.04-36.03-104.32-90.62-104.19-30.93-.72-62.31 2.43-92.82-3.94l.01-.01Z"/>
   </g>
   <defs>
      <clipPath id="a">
         <path fill="#fff" d="M0 0h1024v1024H0z"/>
      </clipPath>
   </defs>
</svg>
